ix/pen-remove_twotone.svg

<svg viewBox="0 0 24 24" fill="none" xmlns="http://www.w3.org/2000/svg" height="1em" width="1em">
  <g opacity="0.4">
    <path d="M21.1901 8.0399L18.0101 4.85991C16.8101 3.65991 15.1601 3.71993 14.3501 5.00993L12.5801 7.80992L18.2501 13.4799L21.0501 11.7099C22.2601 10.9399 22.3301 9.1699 21.1901 8.0399Z" stroke="#292D32" stroke-width="1.5" stroke-linecap="round" stroke-linejoin="round"/>
    <path d="M18.2506 13.4697L18.4906 17.5897C18.7206 19.8897 17.9206 20.6897 15.7406 20.9497L7.0206 21.9797C5.1806 22.1897 3.8606 20.8698 4.0806 19.0398L5.06061 10.7598" stroke="#292D32" stroke-width="1.5" stroke-linecap="round" stroke-linejoin="round"/>
    <path d="M12.5801 7.81018L10.8301 7.7002" stroke="#292D32" stroke-width="1.5" stroke-linecap="round" stroke-linejoin="round"/>
    <path d="M5.28125 20.7799L8.46124 17.5898" stroke="#292D32" stroke-width="1.5" stroke-linecap="round" stroke-linejoin="round"/>
  </g>
  <path d="M11 6.5C11 6.91 10.94 7.32001 10.83 7.70001C10.72 8.10001 10.56 8.47001 10.35 8.82001C10.11 9.22001 9.80999 9.58 9.45999 9.88C8.66999 10.58 7.64 11 6.5 11C5.99 11 5.51 10.92 5.06 10.76C4.04 10.42 3.18999 9.72001 2.64999 8.82001C2.23999 8.14001 2 7.34 2 6.5C2 5.08 2.65 3.80999 3.69 2.98999C4.46 2.36999 5.44 2 6.5 2C8.99 2 11 4.01 11 6.5Z" stroke="#292D32" stroke-width="1.5" stroke-miterlimit="10" stroke-linecap="round" stroke-linejoin="round"/>
  <path d="M8.1608 6.5H4.80078" stroke="#292D32" stroke-width="1.5" stroke-miterlimit="10" stroke-linecap="round" stroke-linejoin="round"/>
</svg>

<svg viewBox="0 0 24 24" fill="none" xmlns="http://www.w3.org/2000/svg" height="1em" width="1em">
  <g opacity=".4" stroke="#292D32" stroke-width="1.5" stroke-linecap="round" stroke-linejoin="round">
    <path d="m21.19 8.04-3.18-3.18c-1.2-1.2-2.85-1.14-3.66.15l-1.77 2.8 5.67 5.67 2.8-1.77c1.21-.77 1.28-2.54.14-3.67Z"/>
    <path d="m18.25 13.47.24 4.12c.23 2.3-.57 3.1-2.75 3.36l-8.72 1.03c-1.84.21-3.16-1.11-2.94-2.94l.98-8.28m7.52-2.95-1.75-.11M5.281 20.78l3.18-3.19"/>
  </g>
  <path d="M11 6.5c0 .41-.06.82-.17 1.2a4.455 4.455 0 0 1-1.37 2.18C8.67 10.58 7.64 11 6.5 11c-.51 0-.99-.08-1.44-.24a4.466 4.466 0 0 1-2.41-1.94A4.5 4.5 0 0 1 2 6.5c0-1.42.65-2.69 1.69-3.51A4.494 4.494 0 0 1 11 6.5Zm-2.84 0H4.8" stroke="#292D32" stroke-width="1.5" stroke-miterlimit="10" stroke-linecap="round" stroke-linejoin="round"/>
</svg>
